src/assets/icons/calendar-events,fancy,add-date.svg

<svg width="48" height="48" viewBox="0 0 48 48" fill="none" xmlns="http://www.w3.org/2000/svg">
<rect opacity="0.2" x="4" y="6" width="40" height="40" rx="4" fill="black"/>
<g opacity="0.4">
<path d="M10 4C10 2.89543 10.8954 2 12 2C13.1046 2 14 2.89543 14 4V8C14 9.10457 13.1046 10 12 10C10.8954 10 10 9.10457 10 8V4Z" fill="black"/>
<path d="M34 4C34 2.89543 34.8954 2 36 2C37.1046 2 38 2.89543 38 4V8C38 9.10457 37.1046 10 36 10C34.8954 10 34 9.10457 34 8V4Z" fill="black"/>
</g>
<path fill-rule="evenodd" clip-rule="evenodd" d="M10 6.00869C7.52043 6.04456 6.11466 6.22849 5.17157 7.17157C4 8.34315 4 10.2288 4 14V16H44V14C44 10.2288 44 8.34315 42.8284 7.17157C41.8853 6.22849 40.4796 6.04456 38 6.00869V8C38 9.10457 37.1046 10 36 10C34.8954 10 34 9.10457 34 8V6H14V8C14 9.10457 13.1046 10 12 10C10.8954 10 10 9.10457 10 8V6.00869Z" fill="black"/>
<path fill-rule="evenodd" clip-rule="evenodd" d="M36.5 48C42.8513 48 48 42.8513 48 36.5C48 30.1487 42.8513 25 36.5 25C30.1487 25 25 30.1487 25 36.5C25 42.8513 30.1487 48 36.5 48ZM37.9998 30.175C37.9998 29.3466 37.3282 28.675 36.4998 28.675C35.6713 28.675 34.9998 29.3466 34.9998 30.175V35H30.1748C29.3463 35 28.6748 35.6716 28.6748 36.5C28.6748 37.3284 29.3463 38 30.1748 38H34.9998V42.825C34.9998 43.6534 35.6713 44.325 36.4998 44.325C37.3282 44.325 37.9998 43.6534 37.9998 42.825V38H42.8247C43.6532 38 44.3247 37.3284 44.3247 36.5C44.3247 35.6716 43.6532 35 42.8247 35H37.9998V30.175Z" fill="black"/>
</svg>

<svg xmlns="http://www.w3.org/2000/svg" width="48" height="48" fill="none" viewBox="0 0 48 48">
  <rect width="40" height="40" x="4" y="6" fill="#000" opacity=".2" rx="4"/>
  <g opacity=".4">
    <path fill="#000" d="M10 4a2 2 0 114 0v4a2 2 0 11-4 0V4zM34 4a2 2 0 114 0v4a2 2 0 11-4 0V4z"/>
  </g>
  <path fill="#000" fill-rule="evenodd" d="M10 6.009c-2.48.036-3.885.22-4.828 1.163C4 8.343 4 10.229 4 14v2h40v-2c0-3.771 0-5.657-1.172-6.828-.943-.944-2.348-1.127-4.828-1.163V8a2 2 0 11-4 0V6H14v2a2 2 0 11-4 0V6.009zM36.5 48C42.851 48 48 42.851 48 36.5S42.851 25 36.5 25 25 30.149 25 36.5 30.149 48 36.5 48zM38 30.175a1.5 1.5 0 00-3 0V35h-4.825a1.5 1.5 0 100 3H35v4.825a1.5 1.5 0 103 0V38h4.825a1.5 1.5 0 100-3H38v-4.825z" clip-rule="evenodd"/>
</svg>
